X:27
T:Polska efter Nils H\"agg
R:polska J
A:H\"alsingland
Z:id:hn-jp-27
M:3/4
L:1/16
K:Gm
g2|^fgaf a2g2 {BA}B3d|f2gf e2dc d3A|{BA}B3d A2B2 G3B|AcA^F D6g2|
^fgaf a2g2 {BA}B3d|f2gf e2dc d3A|{BA}B3d A2B2 G3B|AcA^F G6:|
|:D2|D4 B6Bd|f2gf e2dc d2Bd|f2gf e2dc d3g|^fgaf a2g2 {BA}B3B|AcA^F G6:|

